papirus/32x32/apps/rstudio.svg

<svg height="32" viewBox="0 0 32 32.000001" width="32" xmlns="http://www.w3.org/2000/svg"><circle cx="16" cy="16.000006" fill="#75aadb" r="13.999994"/><path d="m20.209262 26.38422h3.29331c1.440824.514579 4.596913 4.288164 6.312179 7.61578h2.71012c.686106 0 1.200686-.102916 1.440823-.240137.51458-.308748.823328-.891938.823328-1.475129 0-.548885-.274443-1.09777-.686107-1.406518-.343053-.240137-.720411-.308748-1.578044-.308748h-.445969c-1.440824-2.298456-2.71012-3.876501-4.32247-5.283018 2.504288-1.372213 3.704974-3.018868 3.704974-5.180103 0-3.602059-3.087479-6.106347-7.54717-6.106347h-7.650086c-.891938 0-1.132075.03431-1.440823.240137-.51458.308748-.823327.891939-.823327 1.475129 0 .548885.274442 1.063465.720411 1.406518.308748.240137.686107.308748 1.543739.308748h.51458v13.138936h-.51458c-.823327 0-1.132075.03431-1.440823.240138-.51458.308747-.823327.891938-.823327 1.475128 0 .51458.274442 1.063465.720411 1.372213.274443.240137.754717.343053 1.543739.343053h5.145798c.686106 0 1.200686-.102916 1.440823-.240137.51458-.308748.823328-.891938.823328-1.475129 0-.548885-.274443-1.063465-.686106-1.406518-.343054-.240137-.651801-.308748-1.578045-.308748h-1.200686zm0-3.430532v-5.523156h3.842195c2.195541 0 3.773585 1.09777 3.773585 2.572899 0 1.715266-2.126929 2.950257-5.008576 2.950257z" opacity=".2" transform="matrix(.69999967 0 0 .69999967 -.79999208 .20001122)"/><path d="m20.209262 26.38422h3.29331c1.440824.514579 4.596913 4.288164 6.312179 7.61578h2.71012c.686106 0 1.200686-.102916 1.440823-.240137.51458-.308748.823328-.891938.823328-1.475129 0-.548885-.274443-1.09777-.686107-1.406518-.343053-.240137-.720411-.308748-1.578044-.308748h-.445969c-1.440824-2.298456-2.71012-3.876501-4.32247-5.283018 2.504288-1.372213 3.704974-3.018868 3.704974-5.180103 0-3.602059-3.087479-6.106347-7.54717-6.106347h-7.650086c-.891938 0-1.132075.03431-1.440823.240137-.51458.308748-.823327.891939-.823327 1.475129 0 .548885.274442 1.063465.720411 1.406518.308748.240137.686107.308748 1.543739.308748h.51458v13.138936h-.51458c-.823327 0-1.132075.03431-1.440823.240138-.51458.308747-.823327.891938-.823327 1.475128 0 .51458.274442 1.063465.720411 1.372213.274443.240137.754717.343053 1.543739.343053h5.145798c.686106 0 1.200686-.102916 1.440823-.240137.51458-.308748.823328-.891938.823328-1.475129 0-.548885-.274443-1.063465-.686106-1.406518-.343054-.240137-.651801-.308748-1.578045-.308748h-1.200686zm0-3.430532v-5.523156h3.842195c2.195541 0 3.773585 1.09777 3.773585 2.572899 0 1.715266-2.126929 2.950257-5.008576 2.950257z" fill="#fff" transform="matrix(.69999967 0 0 .69999967 -.79999208 -.79999876)"/><path d="m16 2a13.999994 13.999994 0 0 0 -14 14 13.999994 13.999994 0 0 0  .0214844.585938 13.999994 13.999994 0 0 1  13.9785156-13.585938 13.999994 13.999994 0 0 1  13.978516 13.414062 13.999994 13.999994 0 0 0  .021484-.414062 13.999994 13.999994 0 0 0 -14-14z" fill="#fff" opacity=".2"/><path d="m29.978516 15.414062a13.999994 13.999994 0 0 1 -13.978516 13.585938 13.999994 13.999994 0 0 1 -13.9785156-13.414062 13.999994 13.999994 0 0 0 -.0214844.414062 13.999994 13.999994 0 0 0  14 14 13.999994 13.999994 0 0 0  14-14 13.999994 13.999994 0 0 0 -.021484-.585938z" opacity=".3"/></svg>

<?xml version="1.0" encoding="UTF-8" standalone="no"?>
<svg
   xmlns:dc="http://purl.org/dc/elements/1.1/"
   xmlns:cc="http://creativecommons.org/ns#"
   xmlns:rdf="http://www.w3.org/1999/02/22-rdf-syntax-ns#"
   xmlns:svg="http://www.w3.org/2000/svg"
   xmlns="http://www.w3.org/2000/svg"
   xmlns:sodipodi="http://sodipodi.sourceforge.net/DTD/sodipodi-0.dtd"
   xmlns:inkscape="http://www.inkscape.org/namespaces/inkscape"
   version="1.1"
   id="svg2"
   viewBox="0 0 32 32.000001"
   height="32"
   width="32"
   inkscape:version="0.91 r13725"
   sodipodi:docname="rstudio.svg">
  <sodipodi:namedview
     pagecolor="#ffffff"
     bordercolor="#666666"
     borderopacity="1"
     objecttolerance="10"
     gridtolerance="10"
     guidetolerance="10"
     inkscape:pageopacity="0"
     inkscape:pageshadow="2"
     inkscape:window-width="1600"
     inkscape:window-height="849"
     id="namedview14"
     showgrid="false"
     inkscape:zoom="9.28"
     inkscape:cx="15.543391"
     inkscape:cy="10.945582"
     inkscape:window-x="0"
     inkscape:window-y="0"
     inkscape:window-maximized="1"
     inkscape:current-layer="svg2" />
  <defs
     id="defs4" />
  <metadata
     id="metadata7">
    <rdf:RDF>
      <cc:Work
         rdf:about="">
        <dc:format>image/svg+xml</dc:format>
        <dc:type
           rdf:resource="http://purl.org/dc/dcmitype/StillImage" />
        <dc:title></dc:title>
      </cc:Work>
    </rdf:RDF>
  </metadata>
  <circle
     style="opacity:1;fill:#75aadb;fill-opacity:1;stroke:none;stroke-width:10;stroke-miterlimit:4;stroke-dasharray:none;stroke-opacity:1"
     id="path4157"
     cx="16"
     cy="16.000006"
     r="13.999994" />
  <g
     transform="matrix(0.69999967,0,0,0.69999967,-0.79999208,0.20001122)"
     id="g4335"
     style="font-style:normal;font-weight:normal;font-size:39.20607758px;line-height:125%;font-family:sans-serif;letter-spacing:0px;word-spacing:0px;opacity:0.2;fill:#000000;fill-opacity:1;stroke:none;stroke-width:1px;stroke-linecap:butt;stroke-linejoin:miter;stroke-opacity:1">
    <path
       id="path4337"
       style="font-style:normal;font-variant:normal;font-weight:bold;font-stretch:normal;font-size:34.30531693px;font-family:'Nimbus Mono L';-inkscape-font-specification:'Nimbus Mono L Bold';fill:#000000;fill-opacity:1"
       d="m 20.209262,26.38422 3.29331,0 c 1.440824,0.514579 4.596913,4.288164 6.312179,7.61578 l 2.71012,0 c 0.686106,0 1.200686,-0.102916 1.440823,-0.240137 0.51458,-0.308748 0.823328,-0.891938 0.823328,-1.475129 0,-0.548885 -0.274443,-1.09777 -0.686107,-1.406518 -0.343053,-0.240137 -0.720411,-0.308748 -1.578044,-0.308748 l -0.445969,0 c -1.440824,-2.298456 -2.71012,-3.876501 -4.32247,-5.283018 2.504288,-1.372213 3.704974,-3.018868 3.704974,-5.180103 C 31.461406,16.504288 28.373927,14 23.914236,14 l -7.650086,0 c -0.891938,0 -1.132075,0.03431 -1.440823,0.240137 C 14.308747,14.548885 14,15.132076 14,15.715266 c 0,0.548885 0.274442,1.063465 0.720411,1.406518 0.308748,0.240137 0.686107,0.308748 1.543739,0.308748 l 0.51458,0 0,13.138936 -0.51458,0 c -0.823327,0 -1.132075,0.03431 -1.440823,0.240138 C 14.308747,31.118353 14,31.701544 14,32.284734 c 0,0.51458 0.274442,1.063465 0.720411,1.372213 C 14.994854,33.897084 15.475128,34 16.26415,34 l 5.145798,0 c 0.686106,0 1.200686,-0.102916 1.440823,-0.240137 0.51458,-0.308748 0.823328,-0.891938 0.823328,-1.475129 0,-0.548885 -0.274443,-1.063465 -0.686106,-1.406518 -0.343054,-0.240137 -0.651801,-0.308748 -1.578045,-0.308748 l -1.200686,0 0,-4.185248 z m 0,-3.430532 0,-5.523156 3.842195,0 c 2.195541,0 3.773585,1.09777 3.773585,2.572899 0,1.715266 -2.126929,2.950257 -5.008576,2.950257 l -2.607204,0 z"
       inkscape:connector-curvature="0" />
  </g>
  <g
     style="font-style:normal;font-weight:normal;font-size:39.20607758px;line-height:125%;font-family:sans-serif;letter-spacing:0px;word-spacing:0px;fill:#ffffff;fill-opacity:1;stroke:none;stroke-width:1px;stroke-linecap:butt;stroke-linejoin:miter;stroke-opacity:1"
     id="text4211"
     transform="matrix(0.69999967,0,0,0.69999967,-0.79999208,-0.79999876)">
    <path
       inkscape:connector-curvature="0"
       d="m 20.209262,26.38422 3.29331,0 c 1.440824,0.514579 4.596913,4.288164 6.312179,7.61578 l 2.71012,0 c 0.686106,0 1.200686,-0.102916 1.440823,-0.240137 0.51458,-0.308748 0.823328,-0.891938 0.823328,-1.475129 0,-0.548885 -0.274443,-1.09777 -0.686107,-1.406518 -0.343053,-0.240137 -0.720411,-0.308748 -1.578044,-0.308748 l -0.445969,0 c -1.440824,-2.298456 -2.71012,-3.876501 -4.32247,-5.283018 2.504288,-1.372213 3.704974,-3.018868 3.704974,-5.180103 C 31.461406,16.504288 28.373927,14 23.914236,14 l -7.650086,0 c -0.891938,0 -1.132075,0.03431 -1.440823,0.240137 C 14.308747,14.548885 14,15.132076 14,15.715266 c 0,0.548885 0.274442,1.063465 0.720411,1.406518 0.308748,0.240137 0.686107,0.308748 1.543739,0.308748 l 0.51458,0 0,13.138936 -0.51458,0 c -0.823327,0 -1.132075,0.03431 -1.440823,0.240138 C 14.308747,31.118353 14,31.701544 14,32.284734 c 0,0.51458 0.274442,1.063465 0.720411,1.372213 C 14.994854,33.897084 15.475128,34 16.26415,34 l 5.145798,0 c 0.686106,0 1.200686,-0.102916 1.440823,-0.240137 0.51458,-0.308748 0.823328,-0.891938 0.823328,-1.475129 0,-0.548885 -0.274443,-1.063465 -0.686106,-1.406518 -0.343054,-0.240137 -0.651801,-0.308748 -1.578045,-0.308748 l -1.200686,0 0,-4.185248 z m 0,-3.430532 0,-5.523156 3.842195,0 c 2.195541,0 3.773585,1.09777 3.773585,2.572899 0,1.715266 -2.126929,2.950257 -5.008576,2.950257 l -2.607204,0 z"
       style="font-style:normal;font-variant:normal;font-weight:bold;font-stretch:normal;font-size:34.30531693px;font-family:'Nimbus Mono L';-inkscape-font-specification:'Nimbus Mono L Bold';fill:#ffffff;fill-opacity:1"
       id="path4216" />
  </g>
  <path
     style="opacity:0.2;fill:#ffffff;fill-opacity:1;stroke:none;stroke-width:10;stroke-miterlimit:4;stroke-dasharray:none;stroke-opacity:1"
     d="M 16 2 A 13.999994 13.999994 0 0 0 2 16 A 13.999994 13.999994 0 0 0 2.0214844 16.585938 A 13.999994 13.999994 0 0 1 16 3 A 13.999994 13.999994 0 0 1 29.978516 16.414062 A 13.999994 13.999994 0 0 0 30 16 A 13.999994 13.999994 0 0 0 16 2 z "
     id="circle4325" />
  <path
     style="opacity:0.3;fill:#000000;fill-opacity:1;stroke:none;stroke-width:10;stroke-miterlimit:4;stroke-dasharray:none;stroke-opacity:1"
     d="M 29.978516 15.414062 A 13.999994 13.999994 0 0 1 16 29 A 13.999994 13.999994 0 0 1 2.0214844 15.585938 A 13.999994 13.999994 0 0 0 2 16 A 13.999994 13.999994 0 0 0 16 30 A 13.999994 13.999994 0 0 0 30 16 A 13.999994 13.999994 0 0 0 29.978516 15.414062 z "
     id="circle4330" />
</svg>
